src/svg/home-outline.svg

<svg version="1.2" baseProfile="tiny" xmlns="http://www.w3.org/2000/svg" width="24" height="24" viewBox="0 0 24 24"><path d="M22.262 10.468c-3.39-2.854-9.546-8.171-9.607-8.225l-.655-.563-.652.563c-.062.053-6.221 5.368-9.66 8.248-.438.394-.688.945-.688 1.509 0 1.104.896 2 2 2h1v6c0 1.104.896 2 2 2h12c1.104 0 2-.896 2-2v-6h1c1.104 0 2-.896 2-2 0-.598-.275-1.161-.738-1.532zm-8.262 9.532h-4v-5h4v5zm4-8l.002 8h-3.002v-6h-6v6h-3v-8h-3.001c2.765-2.312 7.315-6.227 9.001-7.68 1.686 1.453 6.234 5.367 9 7.681l-3-.001z"/></svg>

<?xml version="1.0" encoding="iso-8859-1"?>
<!-- Generator: Adobe Illustrator 16.2.1, SVG Export Plug-In . SVG Version: 6.00 Build 0)  -->
<svg version="1.2" baseProfile="tiny" id="Layer_1" xmlns="http://www.w3.org/2000/svg" xmlns:xlink="http://www.w3.org/1999/xlink"
	 x="0px" y="0px" width="24px" height="24px" viewBox="0 0 24 24" xml:space="preserve">
<path d="M22.262,10.468c-3.39-2.854-9.546-8.171-9.607-8.225L12,1.68l-0.652,0.563c-0.062,0.053-6.221,5.368-9.66,8.248
	C1.25,10.885,1,11.436,1,12c0,1.104,0.896,2,2,2h1v6c0,1.104,0.896,2,2,2h3h9c1.104,0,2-0.896,2-2v-6h1c1.104,0,2-0.896,2-2
	C23,11.402,22.725,10.839,22.262,10.468z M14,20h-4v-5h4V20z M18,12l0.002,8C18,20,15,20,15,20v-6H9v6H6v-8H2.999
	C5.764,9.688,10.314,5.773,12,4.32c1.686,1.453,6.234,5.367,9,7.681C21,12.001,18,12.001,18,12z"/>
</svg>
